projects/js-packages/social-logos/src/svg/medium.svg

<svg fill="none" height="24" viewBox="0 0 24 24" width="24" xmlns="http://www.w3.org/2000/svg"><path d="m3 3v18h18v-18zm15 4.26-1 .93c-.0414.03056-.0735.07193-.0929.11955-.0194.04763-.0253.09968-.0171.15045v6.8c-.0094.0508-.0041.1033.0154.1511.0195.0479.0523.0891.0946.1189l.94.93v.2h-4.75v-.2l1-1c.09-.1.09-.12.09-.27v-5.45l-2.71 6.9h-.37l-3.2-6.9v4.62c-.01279.097-.0042.1955.02516.2888.02937.0933.07881.1791.14484.2512l1.27 1.54v.2h-3.58v-.2l1.27-1.54c.06785-.0709.11848-.1565.14796-.2502.02947-.0936.03702-.1928.02204-.2898v-5.36c.00483-.07438-.00703-.14891-.03471-.21812s-.07049-.13135-.12529-.18188l-1.14-1.34v-.2h3.52l2.71 5.94 2.38-5.94h3.39z" fill="#000"/></svg>

<svg width="24" height="24" viewBox="0 0 24 24" fill="none" xmlns="http://www.w3.org/2000/svg">
	<path d="M3 3V21H21V3H3ZM18 7.26L17 8.19C16.9586 8.22056 16.9265 8.26193 16.9071 8.30955C16.8877 8.35718 16.8818 8.40923 16.89 8.46V15.26C16.8806 15.3108 16.8859 15.3633 16.9054 15.4111C16.9249 15.459 16.9577 15.5002 17 15.53L17.94 16.46V16.66H13.19V16.46L14.19 15.46C14.28 15.36 14.28 15.34 14.28 15.19V9.74L11.57 16.64H11.2L8 9.74V14.36C7.98721 14.457 7.9958 14.5555 8.02516 14.6488C8.05453 14.7421 8.10397 14.8279 8.17 14.9L9.44 16.44V16.64H5.86V16.44L7.13 14.9C7.19785 14.8291 7.24848 14.7435 7.27796 14.6498C7.30743 14.5562 7.31498 14.457 7.3 14.36V9C7.30483 8.92562 7.29297 8.85109 7.26529 8.78188C7.23761 8.71267 7.1948 8.65053 7.14 8.6L6 7.26V7.06H9.52L12.23 13L14.61 7.06H18V7.26Z" fill="black"/>
</svg>
